src/renderer/assets/svgs/checkbox-blank.svg

<?xml version="1.0" ?><svg fill="none" height="20" viewBox="0 0 20 20" width="20" xmlns="http://www.w3.org/2000/svg">
  <path
    d="M3 5C3 3.89543 3.89543 3 5 3H15C16.1046 3 17 3.89543 17 5V15C17 16.1046 16.1046 17 15 17H5C3.89543 17 3 16.1046 3 15V5ZM5 4C4.44772 4 4 4.44772 4 5V15C4 15.5523 4.44772 16 5 16H15C15.5523 16 16 15.5523 16 15V5C16 4.44772 15.5523 4 15 4H5Z"
    fill="currentColor" />
</svg>

<svg fill="none" height="20" width="20" xmlns="http://www.w3.org/2000/svg"><path d="M3 5a2 2 0 012-2h10a2 2 0 012 2v10a2 2 0 01-2 2H5a2 2 0 01-2-2V5zm2-1a1 1 0 00-1 1v10a1 1 0 001 1h10a1 1 0 001-1V5a1 1 0 00-1-1H5z" fill="currentColor"/></svg>
